X:12
T:Petronella
C:Trad, Eng.  
M:4/4
L:1/8
Q:1/2=116
K:D 
 |: F2 AF E2 AF | D2 D2 D2 FA | d2 cd e2 d2 | cdBc A2 dA |
  F2 AF E2 AF | D2 D2 D2 FA | d2 cd e2 c2 | d4 d4 :||
  AF | D2 fd A2 af | gagf edcB | A2 ec A2 ge |  fafd AdAF |
 D2 fd A2 af | gagf edcB | A2 ec Agec | d2 f2 d4 :||
%%%%  An old standby, from memory.
%%%%  See Chorus.abc for notes on construction
